X:128
T:Plundering the Lowlands
T:Spraith (or Plunder) of the Lowlands now graze in the glens, The
R:Slow Air
S:Simon Fraser Collection
N:No.73
O:Scottish
M:3/4
L:1/8
Q:1/4=200
K:E Minor
B|e4^d2|e<A z2 B2|d4 B2|d<G z2 B2|e4 ^d2|e3f g2|d2B2^G2|A4||^g2|
a<e z2^g2|a<e z2f2|=g<d z2b2|g<d z2^g2|a<e z2 ab|c'3B a2|e3d B2|A4 ^g2|
a<e z2^g2|a<e z2f2|=g<d z2 b2|g<d z2B2|c3 def|gz fz ez|dz cz Bz|A4||

